src/img/logo.svg

<svg width="134" height="45" viewBox="0 0 134 45" fill="none" xmlns="http://www.w3.org/2000/svg">
<path d="M71.8948 18.2142C65.8495 18.2142 60.9819 23.0879 60.9819 29.2194C60.9819 35.2722 65.8495 40.2246 71.8948 40.2246C77.9401 40.2246 82.8862 35.3508 82.8862 29.2194C82.8862 23.0879 77.9401 18.2142 71.8948 18.2142ZM71.8948 21.673C76.0559 21.673 79.3533 25.0531 79.3533 29.1408C79.3533 33.307 75.9773 36.6086 71.8948 36.6086C67.8123 36.6086 64.4363 33.2284 64.4363 29.1408C64.4363 25.0531 67.8123 21.673 71.8948 21.673Z" fill="#06C3C6"/>
<path opacity="0.5" d="M71.8948 33.8573C71.5808 33.8573 71.2667 33.8573 70.9527 33.7787C70.4816 33.7001 70.1676 33.2284 70.2461 32.7568C70.3246 32.2851 70.7957 31.9707 71.2667 32.0493C71.8948 32.2065 72.5229 32.1279 73.151 31.8135C74.1716 31.3418 74.7997 30.3199 74.7997 29.2194C74.7997 28.7477 74.7212 28.3547 74.4856 27.9617C74.3286 27.6472 74.1716 27.4114 73.9361 27.1756C73.622 26.8611 73.622 26.3109 73.9361 25.9178C74.2501 25.6034 74.7997 25.6034 75.1922 25.9178C75.5848 26.3109 75.8988 26.7039 76.1344 27.1756C76.4484 27.8044 76.6054 28.5119 76.6054 29.2194C76.6054 31.0274 75.5848 32.6782 74.0146 33.3856C73.308 33.7001 72.6014 33.8573 71.8948 33.8573Z" fill="#06C3C6"/>
<path d="M87.0473 44.4694C86.3407 45.1769 85.163 45.1769 84.4564 44.4694L77.1549 37.1588C76.4484 36.4513 76.4484 35.2722 77.1549 34.5647C77.8615 33.8572 79.0392 33.8572 79.7458 34.5647L87.0473 41.8753C87.7539 42.5828 87.7539 43.7619 87.0473 44.4694Z" fill="#06C3C6"/>
<path d="M18.6649 0.44864C19.607 0.291423 20.5491 1.07751 20.5491 2.09942V3.59298H24.4746C24.4746 5.08654 23.2185 6.34427 21.7268 6.34427H20.5491V10.4319C20.5491 11.1394 20.7061 11.6896 20.9417 12.0827C21.1772 12.4757 21.6483 12.7116 22.4334 12.7116C22.7474 12.7116 23.14 12.7116 23.5325 12.6329C23.9251 12.5543 24.2391 12.4757 24.5531 12.3971L25.0242 14.9126C24.6317 15.0698 24.1606 15.227 23.6895 15.3056C23.2185 15.3842 22.5904 15.4629 21.8838 15.4629C21.0202 15.4629 20.2351 15.3056 19.6855 15.0698C19.0574 14.834 18.6649 14.5195 18.2723 14.0479C17.9583 13.5762 17.6442 13.1046 17.5657 12.4757C17.4087 11.8469 17.3302 11.1394 17.3302 10.4319V2.09942C17.2517 1.31333 17.8798 0.605857 18.6649 0.44864Z" fill="#06C3C6"/>
<path d="M34.4455 8.54529C34.1314 9.64581 33.8174 10.7463 33.5033 11.8468C33.1893 12.9474 32.7968 14.0479 32.4827 15.1484H29.9704C29.7348 14.5195 29.4208 13.8121 29.1068 12.9474C28.7927 12.0827 28.4787 11.1394 28.1646 10.1961C27.8506 9.17415 27.5366 8.15225 27.144 6.97312C26.6729 5.8726 26.3589 4.69347 26.0449 3.59296H29.4993C29.6563 4.14322 29.7348 4.69347 29.8919 5.32234C30.0489 5.95121 30.2059 6.58008 30.3629 7.28755C30.52 7.91642 30.677 8.6239 30.834 9.25276C30.991 9.88163 31.148 10.5891 31.3836 11.218C31.5406 10.5891 31.7761 9.88163 31.9331 9.25276C32.0902 8.54529 32.3257 7.91642 32.4827 7.28755C32.6397 6.65869 32.7967 6.02982 32.9538 5.40095C33.1108 4.77208 33.2678 4.22182 33.3463 3.67156H35.7016C35.8587 4.22182 35.9372 4.77208 36.0942 5.40095C36.2512 6.02982 36.4082 6.65869 36.5652 7.28755C36.7223 7.91642 36.8793 8.6239 37.0363 9.25276C37.1933 9.96024 37.4289 10.5891 37.5859 11.218C37.7429 10.5891 37.9784 9.96024 38.1355 9.25276C38.2925 8.54529 38.4495 7.91642 38.6065 7.28755C38.7635 6.65869 38.9206 5.95121 39.0776 5.32234C39.2346 4.69347 39.3131 4.14322 39.4701 3.59296H42.8461C42.532 4.77208 42.218 5.8726 41.8254 6.97312C41.5114 8.07364 41.1188 9.17415 40.8048 10.1961C40.4908 11.218 40.1767 12.1613 39.8627 12.9474C39.5486 13.8121 39.2346 14.5195 38.9991 15.1484H36.4082C36.0157 14.0479 35.7016 12.9474 35.3091 11.8468C35.0736 10.7463 34.681 9.64581 34.4455 8.54529Z" fill="#06C3C6"/>
<path d="M71.5808 8.2309C71.5808 7.91646 71.5023 7.68064 71.4238 7.44481C71.3453 7.20899 71.1882 6.97316 71.0312 6.73734C70.8742 6.50151 70.6387 6.34429 70.4031 6.26569C70.1676 6.02986 69.8536 5.95125 69.461 5.95125C69.0685 5.95125 68.7544 6.02986 68.5189 6.10847C68.2834 6.26569 68.0478 6.4229 67.8908 6.58012C67.7338 6.81595 67.5768 7.05177 67.4983 7.2876C67.4197 7.52342 67.3412 7.83786 67.2627 8.15229H71.5808V8.2309ZM63.8868 9.48863C63.8868 8.46672 64.0438 7.52342 64.3578 6.81595C64.6719 6.02986 65.0644 5.40099 65.614 4.85073C66.1636 4.30047 66.7131 3.90743 67.4197 3.67161C68.1263 3.43578 68.7544 3.27856 69.461 3.27856C71.1097 3.27856 72.3659 3.75022 73.3865 4.77213C74.3286 5.79404 74.7997 7.2876 74.7997 9.1742C74.7997 9.33142 74.7997 9.56724 74.7997 9.80307C74.7997 10.0389 74.7997 10.1961 74.7212 10.4319H67.2627C67.3412 11.1394 67.6553 11.6111 68.2048 12.0041C68.7544 12.3971 69.5395 12.633 70.4816 12.633C71.1097 12.633 71.6593 12.5544 72.2874 12.4758C72.8369 12.3971 73.308 12.2399 73.7006 12.0827L74.1716 14.7554C74.0146 14.834 73.7791 14.9126 73.465 14.9912C73.151 15.0698 72.8369 15.1484 72.5229 15.227C72.1304 15.3057 71.8163 15.3843 71.3453 15.3843C70.9527 15.4629 70.5601 15.4629 70.0891 15.4629C69.0685 15.4629 68.1263 15.3057 67.3412 14.9912C66.5561 14.6768 65.928 14.2837 65.457 13.7335C64.9859 13.1832 64.5934 12.5544 64.3578 11.8469C63.9653 11.1394 63.8868 10.3533 63.8868 9.48863Z" fill="#06C3C6"/>
<path d="M9.63616 27.5685C9.40063 27.883 9.00808 28.276 8.53702 28.7477C8.06595 29.2193 7.59489 29.7696 7.12383 30.3984C6.57426 31.0273 6.1032 31.6562 5.55363 32.285C5.00405 32.9139 4.53299 33.6214 4.14044 34.1716H9.71467V36.9229H0.136414V35.0363C0.450455 34.4861 0.843006 33.9358 1.23556 33.3069C1.70662 32.6781 2.09917 32.0492 2.64874 31.4989C3.11981 30.8701 3.59087 30.3198 4.06193 29.691C4.53299 29.1407 4.92554 28.5904 5.31809 28.1188H0.371945V25.3675H9.55765V27.5685H9.63616Z" fill="#493FC7"/>
<path d="M11.913 25.7606C12.4625 25.6034 13.1691 25.4461 14.0327 25.2889C14.8964 25.1317 15.8385 25.0531 16.7806 25.0531C17.8012 25.0531 18.5863 25.2103 19.2144 25.4461C19.8425 25.682 20.3921 26.075 20.7846 26.5467C21.1772 27.0183 21.4127 27.5686 21.5697 28.1974C21.7268 28.8263 21.8053 29.5338 21.8053 30.3985V36.923H18.5078V30.7915C18.5078 29.7696 18.3508 28.9835 18.1153 28.5119C17.8012 28.0402 17.3302 27.883 16.5451 27.883C16.3095 27.883 16.074 27.883 15.76 27.883C15.5244 27.883 15.2889 27.9616 15.0534 27.9616V36.923H11.913V25.7606Z" fill="#493FC7"/>
<path d="M29.2637 34.6433C29.5778 34.6433 29.8918 34.6433 30.2058 34.6433C30.5199 34.6433 30.7554 34.6433 30.9124 34.5647V32.0493C30.7554 32.0493 30.5984 31.9706 30.2843 31.9706C30.0488 31.9706 29.8133 31.892 29.5778 31.892C29.2637 31.892 28.9497 31.892 28.7141 31.9706C28.4786 31.9706 28.2431 32.0493 28.0075 32.2065C27.772 32.2851 27.615 32.4423 27.5365 32.5995C27.458 32.7567 27.3795 32.9926 27.3795 33.2284C27.3795 33.7786 27.5365 34.0931 27.929 34.3289C28.2431 34.5647 28.7141 34.6433 29.2637 34.6433ZM29.0282 25.0531C29.9703 25.0531 30.8339 25.1317 31.462 25.3675C32.0901 25.6034 32.6397 25.9178 33.0322 26.3108C33.4248 26.7039 33.6603 27.2541 33.8173 27.8044C33.9743 28.3547 34.0528 29.0621 34.0528 29.7696V36.6085C33.5818 36.6872 32.9537 36.8444 32.0901 37.0016C31.2265 37.1588 30.2058 37.2374 29.0282 37.2374C28.2431 37.2374 27.615 37.1588 26.9869 37.0016C26.3588 36.8444 25.8878 36.6872 25.4167 36.3727C24.9456 36.0583 24.6316 35.6652 24.3961 35.1936C24.1605 34.7219 24.082 34.0931 24.082 33.3856C24.082 32.6781 24.2391 32.1279 24.4746 31.6562C24.7101 31.1846 25.1027 30.7915 25.5737 30.5557C26.0448 30.2413 26.5159 30.084 27.1439 29.9268C27.6935 29.7696 28.3216 29.7696 28.9497 29.7696C29.3422 29.7696 29.7348 29.7696 30.0488 29.8482C30.3629 29.8482 30.6769 29.9268 30.8339 30.0054V29.691C30.8339 29.1407 30.6769 28.6691 30.3629 28.3547C30.0488 28.0402 29.4207 27.883 28.6356 27.883C28.0861 27.883 27.5365 27.9616 26.9869 28.0402C26.4373 28.1188 25.9663 28.1974 25.5737 28.3547L25.1812 25.6034C25.3382 25.5248 25.5737 25.4461 25.8878 25.4461C26.2018 25.3675 26.5159 25.2889 26.8299 25.2889C27.1439 25.2103 27.5365 25.2103 27.929 25.1317C28.2431 25.0531 28.6356 25.0531 29.0282 25.0531Z" fill="#493FC7"/>
<path d="M43.3957 30.7915C43.3957 29.7696 43.2386 28.9835 43.0031 28.5119C42.7676 28.0402 42.2965 27.883 41.5899 27.883C41.3544 27.883 41.1974 27.883 40.9618 27.883C40.7263 27.883 40.5693 27.9616 40.3338 27.9616V36.923H37.0363V25.7606C37.3504 25.682 37.6644 25.6034 37.9784 25.5248C38.371 25.4461 38.7635 25.3675 39.1561 25.2889C39.5486 25.2103 40.0197 25.2103 40.4123 25.1317C40.8833 25.1317 41.2759 25.0531 41.7469 25.0531C42.6105 25.0531 43.2386 25.1317 43.7882 25.3675C44.3378 25.6034 44.7303 25.8392 45.0444 26.1536C45.5154 25.8392 46.065 25.5248 46.6931 25.3675C47.3212 25.2103 47.8707 25.0531 48.3418 25.0531C49.2839 25.0531 49.9905 25.2103 50.6186 25.4461C51.2467 25.682 51.7177 26.075 52.0318 26.5467C52.3458 27.0183 52.6599 27.5686 52.7384 28.1974C52.8954 28.8263 52.9739 29.5338 52.9739 30.3199V36.8444H49.6765V30.7129C49.6765 29.691 49.5195 28.9049 49.2839 28.4333C49.0484 27.9616 48.5773 27.8044 47.8707 27.8044C47.7137 27.8044 47.4782 27.883 47.1641 27.9616C46.8501 28.0402 46.6146 28.1974 46.379 28.276C46.4576 28.5905 46.5361 28.9835 46.6146 29.3766C46.6146 29.7696 46.6931 30.1626 46.6931 30.5557V36.8444H43.3957V30.7915Z" fill="#493FC7"/>
<path d="M85.2416 25.7606C85.7912 25.6034 86.4978 25.4461 87.3614 25.2889C88.225 25.1317 89.1671 25.0531 90.1093 25.0531C91.1299 25.0531 91.915 25.2103 92.5431 25.4461C93.1712 25.682 93.7207 26.075 94.1133 26.5467C94.5058 27.0183 94.7414 27.5686 94.8984 28.1974C95.0554 28.8263 95.1339 29.5338 95.1339 30.3985V36.923H91.9935V30.7915C91.9935 29.7696 91.8365 28.9835 91.601 28.5119C91.2869 28.0402 90.8159 27.883 90.0308 27.883C89.7952 27.883 89.5597 27.883 89.2457 27.883C89.0101 27.883 88.7746 27.9616 88.5391 27.9616V36.923H85.2416V25.7606Z" fill="#493FC7"/>
<path d="M102.671 34.6433C102.985 34.6433 103.299 34.6433 103.613 34.6433C103.927 34.6433 104.163 34.6433 104.32 34.5647V32.0493C104.163 32.0493 104.006 31.9706 103.691 31.9706C103.456 31.9706 103.22 31.892 102.985 31.892C102.671 31.892 102.357 31.892 102.121 31.9706C101.886 31.9706 101.65 32.0493 101.415 32.2065C101.179 32.2851 101.022 32.4423 100.944 32.5995C100.787 32.7567 100.787 32.9926 100.787 33.2284C100.787 33.7786 100.944 34.0931 101.336 34.3289C101.572 34.5647 102.043 34.6433 102.671 34.6433ZM102.357 25.0531C103.299 25.0531 104.163 25.1317 104.791 25.3675C105.419 25.6034 105.968 25.9178 106.361 26.3108C106.753 26.7039 106.989 27.2541 107.224 27.8044C107.381 28.3547 107.46 29.0621 107.46 29.7696V36.6085C106.989 36.6872 106.361 36.8444 105.497 37.0016C104.634 37.1588 103.613 37.2374 102.435 37.2374C101.65 37.2374 101.022 37.1588 100.394 37.0016C99.766 36.8444 99.2949 36.6872 98.8239 36.3727C98.3528 36.0583 98.0388 35.6652 97.8032 35.1936C97.5677 34.7219 97.4892 34.0931 97.4892 33.3856C97.4892 32.6781 97.6462 32.1279 97.8817 31.6562C98.1173 31.1846 98.5098 30.7915 98.9809 30.5557C99.452 30.2413 99.923 30.084 100.551 29.9268C101.101 29.7696 101.729 29.7696 102.357 29.7696C102.749 29.7696 103.142 29.7696 103.456 29.8482C103.77 29.9268 104.084 29.9268 104.241 30.0054V29.691C104.241 29.1407 104.084 28.6691 103.77 28.3547C103.456 28.0402 102.828 27.883 102.043 27.883C101.493 27.883 100.944 27.9616 100.394 28.0402C99.8445 28.1188 99.3734 28.1974 98.9809 28.3547L98.5883 25.682C98.7454 25.6034 98.9809 25.5248 99.2949 25.5248C99.609 25.4461 99.923 25.3675 100.237 25.3675C100.551 25.2889 100.944 25.2889 101.336 25.2103C101.65 25.0531 102.043 25.0531 102.357 25.0531Z" fill="#493FC7"/>
<path d="M113.348 34.8792C113.348 35.5081 113.113 36.0583 112.72 36.3728C112.328 36.6872 111.857 36.923 111.307 36.923C110.757 36.923 110.286 36.7658 109.894 36.3728C109.501 36.0583 109.266 35.5081 109.266 34.8792C109.266 34.2503 109.501 33.7001 109.894 33.3856C110.286 33.0712 110.757 32.8354 111.307 32.8354C111.857 32.8354 112.328 32.9926 112.72 33.3856C113.113 33.7001 113.348 34.2503 113.348 34.8792Z" fill="#FAAA1E"/>
<path d="M123.005 30.9488C123.005 29.9269 122.77 29.1408 122.298 28.5119C121.827 27.883 121.199 27.5686 120.257 27.5686C119.943 27.5686 119.708 27.5686 119.472 27.5686C119.237 27.5686 119.001 27.6472 118.844 27.6472V33.5429C119.08 33.7001 119.315 33.7787 119.629 33.8573C119.943 33.9359 120.257 34.0145 120.65 34.0145C122.22 34.0931 123.005 32.9926 123.005 30.9488ZM126.302 30.7916C126.302 31.6562 126.224 32.5209 125.988 33.2284C125.753 33.9359 125.439 34.5648 125.046 35.115C124.654 35.6653 124.104 36.0583 123.476 36.3728C122.848 36.6872 122.141 36.8444 121.278 36.8444C120.807 36.8444 120.414 36.7658 120.022 36.6872C119.629 36.6086 119.237 36.4514 118.844 36.2941V40.6962H115.547V25.4462C115.861 25.3676 116.175 25.289 116.567 25.2104C116.96 25.1318 117.352 25.0531 117.745 24.9745C118.137 24.8959 118.608 24.8959 119.001 24.8173C119.472 24.8173 119.865 24.7387 120.257 24.7387C121.199 24.7387 122.063 24.8959 122.77 25.1318C123.555 25.4462 124.183 25.8392 124.654 26.3109C125.203 26.8611 125.596 27.49 125.831 28.1975C126.145 29.0622 126.302 29.9269 126.302 30.7916Z" fill="#FAAA1E"/>
<path d="M133.447 36.8443C132.505 36.8443 131.72 36.6871 131.092 36.5299C130.464 36.3727 129.992 36.0583 129.678 35.7438C129.364 35.4294 129.129 34.9577 128.972 34.4861C128.815 34.0144 128.815 33.4642 128.815 32.8353V21.6729C128.815 20.7296 129.521 20.0221 130.464 20.0221C131.327 20.0221 132.112 20.7296 132.112 21.6729V32.1278C132.112 32.4423 132.112 32.6781 132.191 32.9139C132.269 33.1497 132.348 33.3856 132.426 33.5428C132.583 33.7 132.74 33.8572 132.976 33.9358C133.211 34.0144 133.525 34.093 133.918 34.1716L133.447 36.8443Z" fill="#FAAA1E"/>
<path d="M51.9532 9.33141C51.9532 8.3095 51.7177 7.52342 51.3251 6.97316C50.9326 6.34429 50.383 6.10847 49.5979 6.10847C48.8128 6.10847 48.2632 6.4229 47.8707 6.97316C47.4781 7.52342 47.2426 8.3095 47.2426 9.33141C47.2426 10.3533 47.4781 11.1394 47.8707 11.7683C48.2632 12.3971 48.8913 12.633 49.5979 12.633C50.383 12.633 50.9326 12.3185 51.3251 11.7683C51.7962 11.1394 51.9532 10.3533 51.9532 9.33141ZM55.3291 9.33141C55.3291 10.2747 55.1721 11.0608 54.9366 11.8469C54.7011 12.633 54.3085 13.2618 53.7589 13.8121C53.2879 14.3624 52.6598 14.7554 51.9532 15.0698C51.2466 15.3843 50.4615 15.5415 49.5979 15.5415C48.7343 15.5415 47.9492 15.3843 47.2426 15.0698C46.536 14.7554 45.9079 14.3624 45.4368 13.8121C44.9658 13.2618 44.5732 12.633 44.2592 11.8469C43.9451 11.0608 43.8666 10.2747 43.8666 9.33141C43.8666 8.38811 44.0237 7.60203 44.2592 6.81594C44.5732 6.02986 44.9658 5.40099 45.4368 4.92934C45.9079 4.37908 46.536 3.98604 47.2426 3.67161C48.0277 3.43578 48.8128 3.27856 49.5979 3.27856C50.4615 3.27856 51.1681 3.43578 51.8747 3.75021C52.5813 4.06465 53.1308 4.45769 53.6804 5.00795C54.1515 5.55821 54.544 6.18708 54.8581 6.89455C55.1721 7.60203 55.3291 8.46672 55.3291 9.33141Z" fill="#06C3C6"/>
<path d="M57.8415 5.08658V12.7902C57.8415 15.4629 55.7217 17.5853 53.0523 17.5853H8.06593C7.0453 17.5853 6.26019 18.3714 6.26019 19.3933C6.26019 20.4152 7.0453 21.2013 8.06593 21.2013H53.6804C57.9985 21.2013 61.4529 17.7425 61.4529 13.4191V5.00798C61.4529 3.98607 60.6678 3.19998 59.6472 3.19998C58.7051 3.27859 57.8415 4.06467 57.8415 5.08658Z" fill="#06C3C6"/>
<path d="M55.3292 26.8611V35.115C55.3292 36.1369 56.1143 36.923 57.1349 36.923C58.1555 36.923 58.9406 36.1369 58.9406 35.115V26.8611C58.9406 25.8392 58.1555 25.0531 57.1349 25.0531C56.1143 25.0531 55.3292 25.8392 55.3292 26.8611Z" fill="#493FC7"/>
</svg>

<svg xmlns="http://www.w3.org/2000/svg" fill="none" viewBox="0 0 134 45"><defs/><path fill="#06C3C6" d="M71.895 18.214c-6.045 0-10.913 4.874-10.913 11.005 0 6.053 4.868 11.006 10.913 11.006a10.98 10.98 0 0010.991-11.006 10.98 10.98 0 00-10.991-11.005zm0 3.459c4.16 0 7.458 3.38 7.458 7.468a7.46 7.46 0 01-7.458 7.468c-4.083 0-7.459-3.38-7.459-7.468s3.376-7.468 7.459-7.468z"/><path fill="#06C3C6" d="M71.895 33.857c-.314 0-.628 0-.942-.078-.471-.079-.785-.55-.707-1.022.079-.472.55-.786 1.02-.708.629.157 1.257.079 1.885-.235a2.852 2.852 0 001.649-2.595c0-.471-.079-.864-.314-1.257a2.822 2.822 0 00-.55-.786c-.314-.315-.314-.865 0-1.258.314-.315.864-.315 1.256 0 .393.393.707.786.942 1.258.314.628.471 1.336.471 2.043 0 1.808-1.02 3.46-2.59 4.167a5.175 5.175 0 01-2.12.471z" opacity=".5"/><path fill="#06C3C6" d="M87.047 44.47a1.847 1.847 0 01-2.59 0l-7.302-7.311a1.852 1.852 0 010-2.594 1.847 1.847 0 012.59 0l7.302 7.31a1.852 1.852 0 010 2.594zM18.665.449c.942-.158 1.884.629 1.884 1.65v1.494h3.926c0 1.494-1.257 2.751-2.748 2.751h-1.178v4.088c0 .707.157 1.258.393 1.65.235.394.706.63 1.491.63.314 0 .707 0 1.1-.08.392-.078.706-.156 1.02-.235l.471 2.516a6.624 6.624 0 01-1.335.393c-.47.078-1.099.157-1.805.157-.864 0-1.649-.157-2.198-.393-.629-.236-1.021-.55-1.414-1.022-.314-.472-.628-.943-.706-1.572a8.579 8.579 0 01-.236-2.044V2.099c-.078-.786.55-1.493 1.335-1.65zM34.446 8.545l-.943 3.302c-.314 1.1-.706 2.2-1.02 3.301H29.97c-.235-.628-.55-1.336-.863-2.2-.314-.865-.628-1.809-.942-2.752a138.427 138.427 0 00-1.021-3.223c-.471-1.1-.785-2.28-1.1-3.38H29.5c.157.55.236 1.1.393 1.73.157.628.314 1.257.47 1.965.158.628.315 1.336.472 1.965.157.629.314 1.336.55 1.965.157-.629.392-1.336.55-1.965.156-.708.392-1.337.549-1.965l.47-1.887c.158-.629.315-1.18.393-1.73h2.356c.157.55.235 1.101.392 1.73l.471 1.887c.157.628.314 1.336.471 1.965.157.707.393 1.336.55 1.965.157-.629.392-1.258.55-1.965.156-.708.313-1.337.47-1.965.157-.63.315-1.337.472-1.966.157-.629.235-1.179.392-1.729h3.376c-.314 1.18-.628 2.28-1.02 3.38-.315 1.1-.707 2.201-1.021 3.223a36.797 36.797 0 01-.942 2.751c-.314.865-.628 1.573-.864 2.201h-2.59c-.393-1.1-.707-2.2-1.1-3.301-.235-1.1-.628-2.201-.863-3.302zM71.58 8.23c0-.314-.078-.55-.156-.785-.079-.236-.236-.472-.393-.708a1.22 1.22 0 00-.628-.471c-.235-.236-.55-.315-.942-.315-.392 0-.707.079-.942.157-.236.158-.471.315-.628.472-.157.236-.314.472-.393.708-.078.235-.157.55-.235.864h4.318v.079zM63.888 9.49c0-1.022.157-1.966.47-2.673.315-.786.707-1.415 1.257-1.965.55-.55 1.1-.944 1.806-1.18.706-.235 1.334-.392 2.041-.392 1.649 0 2.905.471 3.925 1.493.943 1.022 1.414 2.516 1.414 4.402v.63c0 .235 0 .392-.079.628h-7.458c.078.707.392 1.18.942 1.572.55.393 1.335.629 2.277.629.628 0 1.177-.079 1.805-.157a6.09 6.09 0 001.414-.393l.47 2.672a3.645 3.645 0 01-.706.236l-.942.236c-.393.079-.707.157-1.178.157-.392.079-.785.079-1.256.079-1.02 0-1.963-.157-2.748-.472-.785-.314-1.413-.707-1.884-1.258-.471-.55-.864-1.179-1.1-1.886-.392-.708-.47-1.494-.47-2.358z"/><path fill="#493FC7" d="M9.636 27.569c-.235.314-.628.707-1.099 1.179a15.388 15.388 0 00-1.413 1.65c-.55.63-1.02 1.258-1.57 1.887s-1.021 1.336-1.414 1.887h5.575v2.75H.136v-1.886c.314-.55.707-1.1 1.1-1.73.47-.628.863-1.257 1.413-1.807.47-.629.942-1.18 1.413-1.808.471-.55.864-1.1 1.256-1.572H.372v-2.752h9.186v2.201h.078zM11.913 25.76c.55-.157 1.256-.314 2.12-.471a15.55 15.55 0 012.748-.236c1.02 0 1.805.157 2.433.393a3.793 3.793 0 011.57 1.1c.393.472.629 1.023.786 1.651.157.63.235 1.337.235 2.201v6.525h-3.297v-6.132c0-1.021-.157-1.808-.393-2.28-.314-.47-.785-.628-1.57-.628h-.785c-.236 0-.471.079-.707.079v8.961h-3.14V25.761zM29.264 34.643h.942c.314 0 .55 0 .706-.078v-2.516c-.157 0-.314-.078-.628-.078-.235 0-.47-.079-.706-.079-.314 0-.628 0-.864.079-.235 0-.47.078-.706.235a.804.804 0 00-.471.393 1.483 1.483 0 00-.157.63c0 .55.157.864.549 1.1.314.236.785.314 1.335.314zm-.236-9.59c.942 0 1.806.079 2.434.314.628.236 1.178.55 1.57.944.393.393.628.943.785 1.493.157.55.236 1.258.236 1.966v6.838c-.471.08-1.1.236-1.963.394-.864.157-1.884.235-3.062.235a8.093 8.093 0 01-2.041-.235c-.628-.158-1.1-.315-1.57-.63a2.937 2.937 0 01-1.02-1.178c-.236-.472-.315-1.1-.315-1.808s.157-1.258.393-1.73a2.482 2.482 0 011.099-1.1c.47-.315.942-.472 1.57-.63.55-.156 1.178-.156 1.806-.156.392 0 .785 0 1.099.078.314 0 .628.079.785.157v-.314c0-.55-.157-1.022-.471-1.336-.314-.315-.942-.472-1.727-.472-.55 0-1.1.079-1.65.157-.549.079-1.02.157-1.412.315l-.393-2.752c.157-.078.393-.157.707-.157.314-.079.628-.157.942-.157.314-.079.707-.079 1.099-.157.314-.079.707-.079 1.1-.079zM43.396 30.791c0-1.021-.157-1.808-.393-2.28-.235-.47-.706-.628-1.413-.628h-.628c-.236 0-.393.079-.628.079v8.961h-3.298V25.761l.942-.236 1.178-.236c.393-.079.864-.079 1.256-.157.471 0 .864-.079 1.335-.079.864 0 1.492.079 2.041.314.55.236.942.472 1.256.787.471-.315 1.021-.63 1.65-.787.627-.157 1.177-.314 1.648-.314.942 0 1.648.157 2.277.393.628.236 1.099.629 1.413 1.1.314.472.628 1.023.706 1.651a8.78 8.78 0 01.236 2.123v6.524h-3.297v-6.131c0-1.022-.157-1.808-.393-2.28-.236-.471-.707-.629-1.413-.629-.157 0-.393.079-.707.158-.314.078-.55.235-.785.314.079.314.157.707.236 1.1 0 .394.078.787.078 1.18v6.288h-3.297v-6.053zM85.242 25.76c.55-.157 1.256-.314 2.12-.471a15.548 15.548 0 012.747-.236c1.02 0 1.806.157 2.434.393a3.793 3.793 0 011.57 1.1c.393.472.628 1.023.785 1.651.157.63.236 1.337.236 2.201v6.525h-3.14v-6.132c0-1.021-.157-1.808-.393-2.28-.314-.47-.785-.628-1.57-.628h-.785c-.236 0-.471.079-.707.079v8.961h-3.297V25.761zM102.671 34.643h.942c.314 0 .55 0 .707-.078v-2.516c-.157 0-.314-.078-.629-.078-.235 0-.471-.079-.706-.079-.314 0-.628 0-.864.079-.235 0-.471.078-.706.235a.801.801 0 00-.471.393c-.157.158-.157.394-.157.63 0 .55.157.864.549 1.1.236.236.707.314 1.335.314zm-.314-9.59c.942 0 1.806.079 2.434.314.628.236 1.177.55 1.57.944.392.393.628.943.863 1.493.157.55.236 1.258.236 1.966v6.838c-.471.08-1.099.236-1.963.394-.863.157-1.884.235-3.062.235a8.09 8.09 0 01-2.041-.235c-.628-.158-1.1-.315-1.57-.63a2.938 2.938 0 01-1.02-1.178c-.236-.472-.315-1.1-.315-1.808s.157-1.258.393-1.73a2.482 2.482 0 011.099-1.1c.471-.315.942-.472 1.57-.63.55-.156 1.178-.156 1.806-.156.392 0 .785 0 1.099.078.314.079.628.079.785.157v-.314c0-.55-.157-1.022-.471-1.336-.314-.315-.942-.472-1.727-.472-.55 0-1.099.079-1.649.157-.55.079-1.02.157-1.413.315l-.393-2.673c.157-.079.393-.157.707-.157.314-.079.628-.157.942-.157.314-.08.707-.08 1.099-.158.314-.157.707-.157 1.021-.157z"/><path fill="#FAAA1E" d="M113.348 34.88c0 .628-.235 1.178-.628 1.493-.392.314-.863.55-1.413.55s-1.021-.157-1.413-.55c-.393-.315-.628-.865-.628-1.494s.235-1.179.628-1.493c.392-.315.863-.55 1.413-.55s1.021.157 1.413.55c.393.314.628.864.628 1.493zM123.005 30.949c0-1.022-.235-1.808-.707-2.437-.471-.629-1.099-.943-2.041-.943h-.785c-.235 0-.471.078-.628.078v5.896c.236.157.471.236.785.314.314.079.628.157 1.021.157 1.57.08 2.355-1.021 2.355-3.065zm3.297-.157c0 .864-.078 1.729-.314 2.436a7.04 7.04 0 01-.942 1.887c-.392.55-.942.943-1.57 1.258-.628.314-1.335.471-2.198.471-.471 0-.864-.078-1.256-.157-.393-.078-.785-.236-1.178-.393v4.402h-3.297v-15.25c.314-.078.628-.157 1.02-.236l1.178-.236c.392-.078.863-.078 1.256-.157.471 0 .864-.078 1.256-.078a8.03 8.03 0 012.513.393c.785.314 1.413.707 1.884 1.179.549.55.942 1.179 1.177 1.887.314.864.471 1.729.471 2.594zM133.447 36.844a9.491 9.491 0 01-2.355-.314 3.038 3.038 0 01-1.414-.786c-.314-.315-.549-.786-.706-1.258-.157-.472-.157-1.022-.157-1.65V21.672c0-.943.706-1.65 1.649-1.65a1.66 1.66 0 011.648 1.65v10.455c0 .314 0 .55.079.786.078.236.157.472.235.629.157.157.314.314.55.393.235.078.549.157.942.236l-.471 2.672z"/><path fill="#06C3C6" d="M51.953 9.331c0-1.021-.235-1.808-.628-2.358-.392-.629-.942-.865-1.727-.865-.785 0-1.335.315-1.727.865-.393.55-.628 1.337-.628 2.358 0 1.022.235 1.808.628 2.437.392.63 1.02.865 1.727.865.785 0 1.335-.314 1.727-.865.471-.629.628-1.415.628-2.437zm3.376 0c0 .944-.157 1.73-.392 2.516a4.551 4.551 0 01-1.178 1.965c-.471.55-1.1.943-1.806 1.258-.706.314-1.492.471-2.355.471-.864 0-1.649-.157-2.355-.471-.707-.315-1.335-.708-1.806-1.258a6.875 6.875 0 01-1.178-1.965c-.314-.786-.392-1.572-.392-2.516 0-.943.157-1.729.392-2.515.314-.786.707-1.415 1.178-1.887.47-.55 1.099-.943 1.806-1.257.785-.236 1.57-.393 2.355-.393.864 0 1.57.157 2.277.471a5.752 5.752 0 011.805 1.258c.471.55.864 1.18 1.178 1.887.314.707.471 1.572.471 2.436z"/><path fill="#06C3C6" d="M57.842 5.087v7.703a4.761 4.761 0 01-4.79 4.795H8.066c-1.02 0-1.806.786-1.806 1.808s.785 1.808 1.806 1.808H53.68a7.745 7.745 0 007.773-7.782V5.008A1.778 1.778 0 0059.647 3.2c-.942.079-1.805.865-1.805 1.887z"/><path fill="#493FC7" d="M55.33 26.861v8.254c0 1.022.784 1.808 1.805 1.808 1.02 0 1.806-.786 1.806-1.808v-8.254a1.778 1.778 0 00-1.806-1.808c-1.02 0-1.806.786-1.806 1.808z"/></svg>
